assets/icons/icon_shopping_cart_notification.svg

<svg width="30" height="27" viewBox="0 0 30 27" fill="none" xmlns="http://www.w3.org/2000/svg">
<path d="M4 2C3.44772 2 3 2.44772 3 3C3 3.55228 3.44772 4 4 4V2ZM6.22222 3L7.2026 2.80288C7.10872 2.33593 6.69852 2 6.22222 2V3ZM5.68629 5.40762C5.79515 5.94907 6.32233 6.29975 6.86378 6.19089C7.40523 6.08202 7.75591 5.55484 7.64705 5.01339L5.68629 5.40762ZM8.44444 13.0525C7.89216 13.0525 7.44444 13.5002 7.44444 14.0525C7.44444 14.6048 7.89216 15.0525 8.44444 15.0525V13.0525ZM19.5556 14.0525V15.0525C19.9336 15.0525 20.2793 14.8394 20.449 14.5016L19.5556 14.0525ZM24 5.21051L24.8935 5.65961C25.0493 5.34962 25.0333 4.98101 24.8512 4.68568C24.6691 4.39035 24.347 4.21051 24 4.21051V5.21051ZM6.66667 4.21051C6.11438 4.21051 5.66667 4.65822 5.66667 5.21051C5.66667 5.76279 6.11438 6.21051 6.66667 6.21051V4.21051ZM7.46406 14.2496C7.57293 14.7911 8.10011 15.1418 8.64156 15.0329C9.18301 14.924 9.53369 14.3969 9.42482 13.8554L7.46406 14.2496ZM7.64705 5.01339C7.53818 4.47194 7.011 4.12126 6.46955 4.23012C5.9281 4.33899 5.57742 4.86617 5.68629 5.40762L7.64705 5.01339ZM9.14968 14.7615C9.54123 14.372 9.54291 13.7388 9.15342 13.3473C8.76393 12.9557 8.13076 12.9541 7.73921 13.3436L9.14968 14.7615ZM5.89667 16.5869L5.19143 15.8779L5.89667 16.5869ZM19.5556 19.4735C20.1078 19.4735 20.5556 19.0258 20.5556 18.4735C20.5556 17.9213 20.1078 17.4735 19.5556 17.4735V19.4735ZM19.5556 18.4735H18.5556C18.5556 18.7397 18.6616 18.9948 18.8503 19.1825L19.5556 18.4735ZM21.7778 20.684L21.0725 21.393C21.2599 21.5794 21.5135 21.684 21.7778 21.684V20.684ZM10.6667 20.684L9.80179 20.1821C9.71328 20.3345 9.66667 20.5077 9.66667 20.684H10.6667ZM10.6667 22.8945H9.66667C9.66667 23.0709 9.71328 23.244 9.80179 23.3965L10.6667 22.8945ZM4 4H6.22222V2H4V4ZM5.24184 3.19712L5.68629 5.40762L7.64705 5.01339L7.2026 2.80288L5.24184 3.19712ZM8.44444 15.0525H19.5556V13.0525H8.44444V15.0525ZM20.449 14.5016L24.8935 5.65961L23.1065 4.7614L18.6621 13.6034L20.449 14.5016ZM24 4.21051H6.66667V6.21051H24V4.21051ZM9.42482 13.8554L7.64705 5.01339L5.68629 5.40762L7.46406 14.2496L9.42482 13.8554ZM7.73921 13.3436L5.19143 15.8779L6.6019 17.2958L9.14968 14.7615L7.73921 13.3436ZM5.19143 15.8779C3.85112 17.2111 4.81103 19.4735 6.68222 19.4735V17.4735C6.64208 17.4735 6.62553 17.4635 6.61734 17.4578C6.60473 17.4489 6.58938 17.4322 6.57888 17.407C6.56837 17.3817 6.56775 17.3602 6.57003 17.3471C6.57136 17.3395 6.57483 17.3228 6.6019 17.2958L5.19143 15.8779ZM6.68222 19.4735H19.5556V17.4735H6.68222V19.4735ZM20.5556 18.4735C20.5556 17.81 21.0978 17.263 21.7778 17.263V15.263C20.0032 15.263 18.5556 16.6954 18.5556 18.4735H20.5556ZM21.7778 17.263C22.4578 17.263 23 17.81 23 18.4735H25C25 16.6954 23.5524 15.263 21.7778 15.263V17.263ZM23 18.4735C23 19.1371 22.4578 19.684 21.7778 19.684V21.684C23.5524 21.684 25 20.2516 25 18.4735H23ZM22.483 19.9751L20.2608 17.7646L18.8503 19.1825L21.0725 21.393L22.483 19.9751ZM11.5315 21.186C11.8068 20.7119 12.3711 20.4771 12.9088 20.6204L13.4239 18.6878C12.0185 18.3133 10.5324 18.9233 9.80179 20.1821L11.5315 21.186ZM12.9088 20.6204C13.4456 20.7635 13.8134 21.2451 13.8134 21.7893H15.8134C15.8134 20.3325 14.8301 19.0627 13.4239 18.6878L12.9088 20.6204ZM13.8134 21.7893C13.8134 22.3335 13.4456 22.8151 12.9088 22.9582L13.4239 24.8907C14.8301 24.5159 15.8134 23.2461 15.8134 21.7893H13.8134ZM12.9088 22.9582C12.3711 23.1015 11.8068 22.8667 11.5315 22.3926L9.80179 23.3965C10.5324 24.6553 12.0185 25.2653 13.4239 24.8907L12.9088 22.9582ZM11.6667 22.8945V20.684H9.66667V22.8945H11.6667Z" fill="black"/>
<circle cx="23.5" cy="5" r="5" fill="#ACD9B2"/>
</svg>

<?xml version="1.0" encoding="utf-8"?>
<!-- Generator: Adobe Illustrator 26.5.0, SVG Export Plug-In . SVG Version: 6.00 Build 0)  -->
<svg version="1.1" id="Capa_1" xmlns="http://www.w3.org/2000/svg" xmlns:xlink="http://www.w3.org/1999/xlink" x="0px" y="0px"
	 viewBox="0 0 30 27" style="enable-background:new 0 0 30 27;" xml:space="preserve">
<style type="text/css">
	.st0{fill:#058E18;}
</style>
<path d="M4,2C3.4,2,3,2.4,3,3s0.4,1,1,1V2z M6.2,3l1-0.2C7.1,2.3,6.7,2,6.2,2V3z M5.7,5.4c0.1,0.5,0.6,0.9,1.2,0.8
	C7.4,6.1,7.8,5.6,7.6,5L5.7,5.4z M8.4,13.1c-0.6,0-1,0.4-1,1c0,0.6,0.4,1,1,1V13.1z M19.6,14.1v1c0.4,0,0.7-0.2,0.9-0.6L19.6,14.1z
	 M24,5.2l0.9,0.4c0.2-0.3,0.1-0.7,0-1S24.3,4.2,24,4.2V5.2z M6.7,4.2c-0.6,0-1,0.4-1,1c0,0.6,0.4,1,1,1V4.2z M7.5,14.2
	c0.1,0.5,0.6,0.9,1.2,0.8c0.5-0.1,0.9-0.6,0.8-1.2L7.5,14.2z M7.6,5C7.5,4.5,7,4.1,6.5,4.2C5.9,4.3,5.6,4.9,5.7,5.4L7.6,5z
	 M9.1,14.8c0.4-0.4,0.4-1,0-1.4c-0.4-0.4-1-0.4-1.4,0L9.1,14.8z M5.9,16.6l-0.7-0.7L5.9,16.6z M19.6,19.5c0.6,0,1-0.4,1-1
	c0-0.6-0.4-1-1-1V19.5z M19.6,18.5h-1c0,0.3,0.1,0.5,0.3,0.7L19.6,18.5z M21.8,20.7l-0.7,0.7c0.2,0.2,0.4,0.3,0.7,0.3V20.7z
	 M10.7,20.7l-0.9-0.5c-0.1,0.2-0.1,0.3-0.1,0.5H10.7z M10.7,22.9h-1c0,0.2,0,0.3,0.1,0.5L10.7,22.9z M4,4h2.2V2H4V4z M5.2,3.2
	l0.4,2.2l2-0.4L7.2,2.8L5.2,3.2z M8.4,15.1h11.1v-2H8.4V15.1z M20.4,14.5l4.4-8.8l-1.8-0.9l-4.4,8.8L20.4,14.5z M24,4.2H6.7v2H24
	V4.2z M9.4,13.9L7.6,5l-2,0.4l1.8,8.8L9.4,13.9z M7.7,13.3l-2.5,2.5l1.4,1.4l2.5-2.5L7.7,13.3z M5.2,15.9c-1.3,1.3-0.4,3.6,1.5,3.6
	v-2c0,0-0.1,0-0.1,0c0,0,0,0,0-0.1c0,0,0,0,0-0.1c0,0,0,0,0-0.1L5.2,15.9z M6.7,19.5h12.9v-2H6.7V19.5z M20.6,18.5
	c0-0.7,0.5-1.2,1.2-1.2v-2c-1.8,0-3.2,1.4-3.2,3.2H20.6z M21.8,17.3c0.7,0,1.2,0.5,1.2,1.2h2c0-1.8-1.4-3.2-3.2-3.2V17.3z M23,18.5
	c0,0.7-0.5,1.2-1.2,1.2v2c1.8,0,3.2-1.4,3.2-3.2H23z M22.5,20l-2.2-2.2l-1.4,1.4l2.2,2.2L22.5,20z M11.5,21.2
	c0.3-0.5,0.8-0.7,1.4-0.6l0.5-1.9c-1.4-0.4-2.9,0.2-3.6,1.5L11.5,21.2z M12.9,20.6c0.5,0.1,0.9,0.6,0.9,1.2h2c0-1.5-1-2.7-2.4-3.1
	L12.9,20.6z M13.8,21.8c0,0.5-0.4,1-0.9,1.2l0.5,1.9c1.4-0.4,2.4-1.6,2.4-3.1H13.8z M12.9,23c-0.5,0.1-1.1-0.1-1.4-0.6l-1.7,1
	c0.7,1.3,2.2,1.9,3.6,1.5L12.9,23z M11.7,22.9v-2.2h-2v2.2H11.7z"/>
<circle class="st0" cx="23.5" cy="5" r="5"/>
</svg>
